themes/gwen-portfolio/assets/hero-logo.svg

<?xml version="1.0" encoding="UTF-8"?>
<svg width="188px" height="197px" viewBox="0 0 188 197" version="1.1" xmlns="http://www.w3.org/2000/svg" xmlns:xlink="http://www.w3.org/1999/xlink">
    <!-- Generator: Sketch 44.1 (41455) - http://www.bohemiancoding.com/sketch -->
    <title>HERO LOGO</title>
    <desc>Created with Sketch.</desc>
    <defs>
        <linearGradient x1="86.0511218%" y1="13.4888464%" x2="11.464287%" y2="87.698791%" id="linearGradient-1">
            <stop stop-color="#F5699E" offset="0%"></stop>
            <stop stop-color="#9862E1" offset="77.315212%"></stop>
            <stop stop-color="#9862E1" offset="77.5771878%"></stop>
            <stop stop-color="#9862E1" offset="78.6999956%"></stop>
            <stop stop-color="#9862E1" offset="81.6673891%"></stop>
            <stop stop-color="#6E73D6" offset="100%"></stop>
        </linearGradient>
    </defs>
    <g id="Page-1" stroke="none" stroke-width="1" fill="none" fill-rule="evenodd">
        <g id="LANDING-PAGE3" transform="translate(-626.000000, -235.000000)" fill="url(#linearGradient-1)">
            <path d="M713.368071,429.478805 L627.648454,383.761676 L627.648454,383.651779 L627.648454,274.751801 L706.672361,242.648339 L707.43598,242.338119 L706.81554,240.810881 L706.051921,241.121102 L627.07531,273.20535 L626,273.20535 L626,274.029577 L626,383.651779 L626,384.476006 L626.302217,384.476006 L626.12121,384.815394 L626.848469,385.203265 L713.392313,431.359982 L714.119572,431.747854 L714.714309,430.632723 L715.016525,430.632723 L715.016525,429.808496 L715.016525,320.186293 L715.016525,319.362066 L713.977204,319.362066 L713.70797,319.225553 L655.632803,289.77899 L654.897674,289.406248 L654.152192,290.876506 L654.88732,291.249247 L712.962487,320.695811 L713.368071,320.901459 L713.368071,429.478805 Z M813.621559,282.271848 L813.923776,282.271848 L813.923776,283.096075 L813.923776,392.718277 L813.923776,393.542504 L812.752854,393.542504 L812.937047,393.995903 L812.173428,394.306123 L733.047628,426.450979 L732.284009,426.761199 L731.663569,425.233962 L732.427187,424.923742 L811.552988,392.778885 L812.275321,392.485437 L812.275321,283.096075 L812.275321,282.986178 L725.755719,236.84239 L725.02846,236.454518 L725.804203,235 L726.531462,235.387872 L813.075306,281.544588 L813.802566,281.93246 L813.621559,282.271848 Z M726.555704,315.275729 L726.555704,315.653045 L724.90725,315.653045 L724.90725,314.828817 L724.90725,238.175698 L724.90725,237.351471 L726.555704,237.351471 L726.555704,238.175698 L726.555704,313.971199 L726.864433,313.845778 L787.190322,289.338386 L787.95394,289.028166 L788.574381,290.555404 L787.810762,290.865624 L727.484873,315.373016 L726.721254,315.683236 L726.555704,315.275729 Z" id="HERO-LOGO"></path>
        </g>
    </g>
</svg>

<svg xmlns="http://www.w3.org/2000/svg" width="188" height="197"><title>HERO LOGO</title><desc>Created with Sketch.</desc><defs><linearGradient id="a" x1="86.051%" x2="11.464%" y1="13.489%" y2="87.699%"><stop stop-color="#F5699E" offset="0%"/><stop stop-color="#9862E1" offset="77.315%"/><stop stop-color="#9862E1" offset="77.577%"/><stop stop-color="#9862E1" offset="78.7%"/><stop stop-color="#9862E1" offset="81.667%"/><stop stop-color="#6E73D6" offset="100%"/></linearGradient></defs><g fill="none"><g fill="url(#a)" transform="translate(-626 -235)"><path d="M713.37 429.48l-85.72-45.72v-109l79.02-32.1.77-.32-.62-1.53-.77.32-78.97 32.1H626V384.47h.3l-.18.34.73.38 86.54 46.16.72.4.6-1.13h.3V319.37h-1.04l-.27-.13-58.07-29.45-.73-.37-.75 1.48.74.37 58.06 29.45.4.2v108.58zm100.25-147.2h.3V393.53h-1.17l.2.46-.78.3-79.12 32.15-.77.3-.62-1.52.77-.3 79.12-32.15.73-.3V283l-86.52-46.16-.73-.4.77-1.44.73.4 86.55 46.14.72.4-.18.33zm-87.06 33v.37h-1.65v-78.3h1.66v76.63l.3-.13 60.33-24.5.75-.32.62 1.53-.76.3-60.32 24.5-.76.32-.16-.4z"/></g></g></svg>
